!!!!SEGMENT: pl-wnifc--13846--043_anonim--piesni-polskie-i-ruskie-ludu-galicyjskiego-43-jedno-twoje-dziewcze-przyjemne-spojrzenie.krn
!!!kernsource:
!!!cenid: 18xx:3265
!!!COM: Anonim
!!!COM-rismid: pe30004985
!!!CDT:
!!!CNT:
!!!GTL: Pieśni polskie i ruskie ludu galicyjskiego
!!!OTL: 43. Jedno twoje, dziéwcze, przyjemne spojrzenie
!!!PDT: 1833
!!!AGN:
!!!SMS-siglum: PL-Wnifc
!!!SMS-shelfmark: 13846
!!!SMS-shelfwork: 043 G
!!!NIFC-rismid: 1001036930
!!!URL-scan: http://repozytorium.nifc.pl/skany/pl-wnifc-nut--13846
!!!ONB-nifc:
!!!key: G
**kern	**kern	**kern	**text
*group2	*group2	*group1	*
*part2	*part2	*part1	*part1
*staff3	*staff2	*staff1	*staff1
*I"[Piano]	*I"[Piano]	*I"[Soprano]	*
*Ipiano	*Ipiano	*Isoprn	*
*ICklav	*ICklav	*ICvox	*
*IGacmp	*IGacmp	*IGsolo	*
*clefF4	*clefG2	*clefG2	*
*k[f#]	*k[f#]	*k[f#]	*
*G:	*G:	*G:	*
*M2/4	*M2/4	*M2/4	*
=1-	=1-	=1-	=1-
!	!	!LO:TX:b:B:rj:t=D.b.B\n78.	!
!	!	!LO:TX:a:B:t=Krakowiak.	!
4DD/	8d/L	8d/	Je-
.	8f#/	8f#/	-dno
4D\ 4F#\ 4A\	8.a/	(>/8.a	two-
.	16cc/Jk	16cc/)	.
=2	=2	=2	=2
4GGG/ 4GG/	8b\	8b\	-je,
.	4g\	4g/	dzie'w-
4D\ 4G\ 4B\	.	.	.
.	8dd\	8dd\	-cze,
!!LO:LB:g=original
=3	=3	=3	=3
4DD/	(>\16cc#XLL	(>\16cc#XLL	przy-
.	16dd\)	16dd\JJ)	.
.	(>\16ee	(>\16eeLL	-je-
.	16dd\JJ)	16dd\JJ)	.
4D\ 4F#\ 4A\ 4d\	(>\8.ccnL	(>\8.ccnL	-mne
.	16a\Jk)	16a\Jk)	.
=4	=4	=4	=4
4GG/	8g/	8g/	spoj-
.	4b/	4b/	-rze-
4D\ 4G\ 4B\	.	.	.
.	8g/	8g/	-nie
=5	=5	=5	=5
4DD/	8d/	8d/	roz-
.	8f#/	8f#/	-pę-
4D\ 4F#\ 4A\ 4B\	8.a/	(</8.a	-dza
.	16cc\	16cc/)	.
!!LO:PB:g=original
=6	=6	=6	=6
4GG/	8b\	8b\	me
.	4g/	4g/	tro-
4D\ 4G\ 4B\	.	.	.
.	8dd\	8dd\	-ski
=7	=7	=7	=7
.	8qcc#X/	8qcc#X/	.
4DD/	8dd\	8dd\	w naj-
.	(>16ee\LL	(>16ee\LL	-dro-
.	16dd\JJ)	16dd\JJ)	.
!!mixed beam:problem
!	!LO:TX:t=P:problem:mixed beam	!	!
4D\ 4F#\ 4A\	(>\8.ccnL	(>\8.ccn	-bniey-
.	16f#/Jk)	16f#/)	.
=8	=8	=8	=8
!LO:TX:t=P:problem:4/left	!	!	!
4GG/	8a/	8a/	-sze
.	4g/	4g/	cie-
4D\ 4G\ 4B\	.	.	.
.	8g/	8g/	-nie.
!!LO:LB:g=original
=9	=9	=9	=9
4CC/	8cc\ 8ee\	8ee\	Niech-
.	(>\16ccLL 16ee\	(>16ee\LL	-że
.	16dd\JJ) 16ff#\	16ff#\JJ)	.
4G\ 4c\ 4e\	8.ee\L 8.gg\	(>8.gg\	się
.	16ee\Jk	16ee\)	.
=10	=10	=10	=10
4GG/	8b\ 8dd\	8dd\	nie
.	4g\ 4b\	4b\	zmie-
4G\ 4B\ 4d\	.	.	.
.	8b\ 8dd\	8dd\	-ni
=11	=11	=11	=11
4DD/	8b\L 8dd\	8dd\	dla
.	.	8qee/	.
.	8b\J 8dd\	8dd\	mnie
4D\ 4F#\ 4A\	8a\L 8cc\	8cc\	mi-
.	8d\J 8a\	8a\	-łość
!!LO:LB:g=original
=12	=12	=12	=12
4GG/	8B/ 8g/	8g/	two-
.	4g\ 4b\	(>4b/	-ja,
4D\ 4G\ 4B\	.	.	.
.	8b\ 8dd\	8dd\)	.
=13	=13	=13	=13
4CC/	8cc\ 8ee\	8ee\	bo
.	(>\16ccLL 16ee\	(>16ee\LL	któż
.	16dd\JJ) 16ff#\	16ff#\JJ)	.
4C\ 4G\ 4c\	8.ee\L 8.gg\	(>8.gg\	cię
.	16cc\Jk 16ee\	16ee\)	.
=14	=14	=14	=14
4GG/	8b\ 8dd\	8dd\	po-
.	4g\ 4b\	4b/	-tra-
4G\ 4B\ 4d\	.	.	.
.	8b\ 8dd\	8dd\	-fi
!!LO:LB:g=original
=15	=15	=15	=15
4DD/	8b\L 8dd\	8dd\	ty-
.	(<8qee/	(<8qee/	.
.	8b\J) 8dd\	8dd\)	-le
4D\ 4F#\ 4A\	8.a\L 8.cc\	(>8.cc\L	ko-
.	16c\Jk 16f#\	16f#\Jk)	.
=16	=16	=16	=16
4GG/	8B/ 8g/	8g/	-chać
.	4B/ 4g/	4g/	co
4GG/ 4D/ 4G/	.	.	.
.	8B/ 8g/	8g/	ja.
==	==	==	==
*-	*-	*-	*-
!!!system-decoration: g1,[{g2}]
!!!EED: Jędrzej Mróz
!!!ESR: 2021-11-10
!!!RDF**kern: > = above
!!!RDF**kern: < = below
